packages/icons/web/support_filled_large.svg

<svg width="24" height="24" viewBox="0 0 24 24" fill="none" xmlns="http://www.w3.org/2000/svg">
<path fill-rule="evenodd" clip-rule="evenodd" d="M4 6C4 5.44772 4.44772 5 5 5H19C19.5523 5 20 5.44772 20 6V17C20 17.5523 19.5523 18 19 18H15L12.1768 20.8232C12.0791 20.9209 11.9209 20.9209 11.8232 20.8232L9 18H5C4.44772 18 4 17.5523 4 17V6ZM16 11H8V9H16V11ZM8 14H16V12H8V14Z" fill="#212933"/>
</svg>

<svg width="24" height="24" fill="none" xmlns="http://www.w3.org/2000/svg">
    <path fill-rule="evenodd" clip-rule="evenodd" d="M4 6a1 1 0 011-1h14a1 1 0 011 1v11a1 1 0 01-1 1h-4l-2.823 2.823a.25.25 0 01-.354 0L9 18H5a1 1 0 01-1-1V6zm12 5H8V9h8v2zm-8 3h8v-2H8v2z" fill="currentColor"/>
</svg>
